assets/icons/24px/stroke/circle-with-cross-24px.svg

<svg width="24" height="24" viewBox="0 0 24 24" fill="none" xmlns="http://www.w3.org/2000/svg">
<path fill-rule="evenodd" clip-rule="evenodd" d="M12 3C7.02944 3 3 7.02944 3 12C3 16.9706 7.02944 21 12 21C16.9706 21 21 16.9706 21 12C21 7.02944 16.9706 3 12 3ZM1 12C1 5.92487 5.92487 1 12 1C18.0751 1 23 5.92487 23 12C23 18.0751 18.0751 23 12 23C5.92487 23 1 18.0751 1 12Z" fill="white"/>
<path fill-rule="evenodd" clip-rule="evenodd" d="M1.29289 1.29289C1.68342 0.902369 2.31658 0.902369 2.70711 1.29289L12 10.5858L18.2927 4.2931C18.2928 4.29303 18.2926 4.29317 18.2927 4.2931L21.2929 1.29289C21.6834 0.902369 22.3166 0.902369 22.7071 1.29289C23.0976 1.68342 23.0976 2.31658 22.7071 2.70711L21.2073 4.20696C21.2072 4.20701 21.2073 4.20691 21.2073 4.20696L13.4142 12L19.7067 18.2925C19.7068 18.2926 19.7066 18.2923 19.7067 18.2925L22.7071 21.2929C23.0976 21.6834 23.0976 22.3166 22.7071 22.7071C22.3166 23.0976 21.6834 23.0976 21.2929 22.7071L18.2929 19.7071C18.2928 19.707 18.293 19.7072 18.2929 19.7071L12 13.4142L2.70711 22.7071C2.31658 23.0976 1.68342 23.0976 1.29289 22.7071C0.902369 22.3166 0.902369 21.6834 1.29289 21.2929L10.5858 12L1.29289 2.70711C0.902369 2.31658 0.902369 1.68342 1.29289 1.29289Z" fill="white"/>
</svg>

<svg width="24" height="24" fill="none" xmlns="http://www.w3.org/2000/svg"><path fill-rule="evenodd" clip-rule="evenodd" d="M12 3a9 9 0 1 0 0 18 9 9 0 0 0 0-18zM1 12C1 5.925 5.925 1 12 1s11 4.925 11 11-4.925 11-11 11S1 18.075 1 12z" fill="#fff"/><path fill-rule="evenodd" clip-rule="evenodd" d="M1.293 1.293a1 1 0 0 1 1.414 0L12 10.586l6.293-6.293 3-3a1 1 0 1 1 1.414 1.414l-1.5 1.5L13.414 12l6.293 6.293 3 3a1 1 0 0 1-1.414 1.414l-3-3L12 13.414l-9.293 9.293a1 1 0 0 1-1.414-1.414L10.586 12 1.293 2.707a1 1 0 0 1 0-1.414z" fill="#fff"/></svg>
